Newaita/actions/16/draw-halfcircle2.svg

<svg height="16" viewBox="0 0 16 16" width="16" xmlns="http://www.w3.org/2000/svg"><g fill="#424242"><path d="m7.9375 2.109375c3.300781 0 5.953125 2.65625 5.953125 5.953125 0 3.300781-2.652344 5.953125-5.953125 5.953125v-1.320313c2.566406 0 4.632812-2.066406 4.632812-4.632812s-2.066406-4.628906-4.632812-4.628906zm0 0"/><path d="m7.9375 2.109375c-.363281 0-.660156.296875-.660156.660156v10.585938c0 .367187.296875.660156.660156.660156.367188 0 .664062-.292969.664062-.660156v-10.585938c0-.363281-.296874-.660156-.664062-.660156zm0 0"/></g></svg>

<?xml version="1.0" encoding="UTF-8"?>
<svg xmlns="http://www.w3.org/2000/svg" xmlns:xlink="http://www.w3.org/1999/xlink" width="16px" height="16px" viewBox="0 0 16 16" version="1.1">
<g id="surface1">
<path style=" stroke:none;fill-rule:nonzero;fill:rgb(25.882354%,25.882354%,25.882354%);fill-opacity:1;" d="M 7.9375 2.109375 C 11.238281 2.109375 13.890625 4.765625 13.890625 8.0625 C 13.890625 11.363281 11.238281 14.015625 7.9375 14.015625 L 7.9375 12.695312 C 10.503906 12.695312 12.570312 10.628906 12.570312 8.0625 C 12.570312 5.496094 10.503906 3.433594 7.9375 3.433594 Z M 7.9375 2.109375 "/>
<path style=" stroke:none;fill-rule:nonzero;fill:rgb(25.882354%,25.882354%,25.882354%);fill-opacity:1;" d="M 7.9375 2.109375 C 7.574219 2.109375 7.277344 2.40625 7.277344 2.769531 L 7.277344 13.355469 C 7.277344 13.722656 7.574219 14.015625 7.9375 14.015625 C 8.304688 14.015625 8.601562 13.722656 8.601562 13.355469 L 8.601562 2.769531 C 8.601562 2.40625 8.304688 2.109375 7.9375 2.109375 Z M 7.9375 2.109375 "/>
</g>
</svg>
